X:1
T:Bear Butte, 11.11.11.11 D
T:Bear Butte, 11.11.11.11 D
T:Ephraim Timothy Hildebrand, 1904
T:Public Domain Courtesy of the Cyber Hymnal™
C:Ephraim Timothy Hildebrand, 1904
Z:Public Domain
Z:Courtesy of the Cyber Hymnal™
%%score ( 1 2 ) ( 3 4 )
L:1/8
Q:1/4=110
M:3/4
K:A
V:1 treble 
V:2 treble 
V:3 bass 
V:4 bass 
V:1
 E2 | [Ac]2 [Gc]2 [Fc]2 | [Ec]4 [CE][EA] | [Ac]2 [Gc]2 [Fc]2 | [Gd]4 ([GB][Ac]) | %5
 [Bd]2 [Ad]2 [Gd]2 | [Fd]2 [Fc]2 (cd) | [Ee]2 [Ee]2 d2 | [Ac]4 E2 | [Ac]2 [Gc]2 [Fc]2 | %10
 [Ec]4 [CE][EA] | [Ac]2 [Gc]2 [Fc]2 | [Gd]4 ([GB][Ac]) | [Bd]2 [Ad]2 [Gd]2 | [Ac]2 [Ee]2 [Fd][FB] | %15
 [EA]2 [EA]2 [DG]2 | [CA]4 |: [Ee]2 | [Ee]2 [EA]2 [EB]2 | [Ec]4 [Ee][Ee] | [Ee]2 [EA]2 [EB]2 | %21
 [Ec]4 [Ec]2 |1 [Dd]2 [Ec]2 [EB]2 | [Ee]2 [FA]2 [Fd][FB] | [EA]2 [CA]2 [EB]2 | [Ec]4 :|2 %26
 [Dd]2 [Ec]2 B2 || e2 f2 [Fd][FB] | [EA]2 [EA]2 [DG]2 | [CA]6 |] %30
V:2
 E2 | x6 | x6 | x6 | x6 | x6 | x4 E2 | x4 (FG) | x4 E2 | x6 | x6 | x6 | x6 | x6 | x6 | x6 | x4 |: %17
 x2 | x6 | x6 | x6 | x6 |1 x6 | x6 | x6 | x4 :|2 x4 (FG) || A4 x2 | x6 | x6 |] %30
V:3
 E,2 | [A,,E,]2 [A,,E,]2 (F,G,) | [A,,A,]4 A,[A,C] | [A,E]2 [A,E]2 A,2 | [E,B,]4 (B,A,) | %5
 [E,G,]2 [E,A,]2 [E,B,]2 | A,2 A,2 (A,B,) | [E,C]2 [E,C]2 [E,B,]2 | [A,,A,]4 E,2 | %9
 [A,,E,]2 [A,,E,]2 (F,G,) | [A,,A,]4 A,[A,C] | [A,E]2 [A,E]2 A,2 | [E,B,]4 (B,A,) | %13
 [E,G,]2 [E,A,]2 [E,B,]2 | A,4 [D,A,][D,D] | [E,C]2 [E,C]2 [E,B,]2 | [A,,A,]4 |: [E,E]2 | %18
 [E,E]2 [C,E]2 [E,G,]2 | A,4 [E,E][E,E] | [E,E]2 [C,E]2 [E,G,]2 | A,4 A,2 |1 %22
 [F,A,]2 [E,A,]2 [E,G,]2 | A,4 [D,A,][D,D] | [E,C]2 [E,A,]2 [E,G,]2 | A,4 :|2 %26
 [F,A,]2 [E,A,]2 (DB,) || [C,A,]2 [D,D]2 [D,A,][D,D] | [E,C]2 [E,C]2 [E,B,]2 | [A,,A,]6 |] %30
V:4
 E,2 | x4 A,,2 | x4 A, x | x4 A,2 | x4 E,2 | x6 | A,2 A,2 A,2 | x6 | x4 E,2 | x4 A,,2 | x4 A, x | %11
 x4 A,2 | x4 E,2 | x6 | A,2 C,2 x2 | x6 | x4 |: x2 | x6 | A,4 x2 | x6 | A,4 A,2 |1 x6 | %23
 C,2 D,2 x2 | x6 | A,4 :|2 x4 D,2 || x6 | x6 | x6 |] %30

